X: 643
T: Ufaratsta
C: Genesis 28:14
O: Hassidic
W: And you shall spread out to the west and to the east, to the north and to the south.
W: All the families of the earth shall bless themselves by you and your descendants.
W:
W: Transcription by John Chambers http://trillian.mit.edu/~jc/music/abc/Klezmer/
M: C
L: 1/8
K: G
|: "G"DB GG GG GG | DB GG GG GG | "Em"GG FG "Am"A3 G
w: U-fa-rats-ta, u-fa-rats-ta, u-fa-rats-ta, u-fa-rats-ta, ya-ma va-ked-ma tsa-
| "D7"FF EF "G"G4 :| "G"(dB "D7"cA "G"B)G GG | GG FG "D7"A4
w: fo-na va-neg-ba. U-****fa-rats-ta, ya-ma va-ked-ma,
| "G"(dB "D7"cA "G"B)G GG/G/ | "D7"AA GF "G"G3 B | "G"d3B d3B | d2 d2 d2 d2
w: U-****fa-rats-ta, tsa-fo-na va-neg-ba. ah ha ah ha ah U-fa-rats-ta,
| "G"dd "C"ee "G"dd BG | "G"dd "C"ee "G"dd BG |: "D7"cc2 c "G"BB2 B
w: u-fa-rats-ta, u-fa-rats-ta, u-fa-rats-ta, u-fa-rats-ta, ya-ma va-ked-ma tsa-
|  "D7"AA2 A "G"(GB)d2 |  "D7"cc2 c "G"BB2 B |  "Am"AA "D7"BA "G"G4 :|
w: fo-na va-neg-*ba.  ya-ma va-ked-ma tsa-fo-na va-neg-ba.
